tools/download-figma-icons/icons/solid/lightning.svg

<svg width="24" height="24" viewBox="0 0 24 24" fill="none" xmlns="http://www.w3.org/2000/svg">
<path fill-rule="evenodd" clip-rule="evenodd" d="M21.4715 11.3019L12.5999 23.3175C12.2999 23.7525 11.8274 24 11.3256 24C11.1681 24 11.0024 23.9767 10.8449 23.925C10.1774 23.715 9.74988 23.1225 9.74988 22.41V14.9993H3.87069C3.2257 14.9993 2.6707 14.6843 2.40821 14.1818C2.16071 13.7168 2.20646 13.1618 2.52821 12.6968L11.3999 0.681224C11.7899 0.111979 12.4874 -0.135518 13.1548 0.0737298C13.8223 0.284478 14.2498 0.876972 14.2498 1.58871V8.99939H20.129C20.774 8.99939 21.329 9.31439 21.5915 9.81688C21.839 10.2819 21.794 10.8369 21.4715 11.3019Z" fill="black"/>
</svg>

<svg xmlns="http://www.w3.org/2000/svg" width="24" height="24" fill="none" viewBox="0 0 24 24"><path fill="currentColor" fill-rule="evenodd" d="M21.472 11.302 12.6 23.318a1.544 1.544 0 0 1-1.755.607c-.668-.21-1.095-.803-1.095-1.515V15H3.87c-.644 0-1.2-.316-1.462-.818-.247-.465-.202-1.02.12-1.485L11.4.68a1.55 1.55 0 0 1 1.755-.607c.667.21 1.095.803 1.095 1.515v7.41h5.879c.645 0 1.2.315 1.462.818.248.465.203 1.02-.12 1.485" clip-rule="evenodd"/></svg>
